X:234
T: Abendreihen
N: A0282A
O: Europa, Mitteleuropa, Deutschland
N: P. Schoeffer II: 65 Lieder 1537 No. 57.
R: Romanze, Ballade, Lied
M: 4/2
L: 1/4
K: C
 |  |  |  | E4E2E2 | G4F2F2 | E4D2D2 | C4
D4 | E4E4 | G4F2F2 | E4D2D2 | C4
F4 | E3DC2B,2 | A,4G,4 | D4D4 | E4
F4 | E3DC2B,2 | A,4G,4 | D4D4 | C8

@@@ Tune index: 234
